X:8415
T:Kate Dalrymple
R:Reel
O:Scotland
M:4/4
K:AMix
A2Ac B2Bc|A2Ac B2Bc|A2a2 fedc|B2e2 c2A2 ::\
e2ef edcd|e2a2 e2c2|
e2a2 f2a2|e2a2 e2c2|\
dfd2 c2ec|B2Bc edcB|A2a2 fedc|B2e2 c2A2:|
